static/img/background/safespring-background-dbaas.svg

<svg xmlns="http://www.w3.org/2000/svg" xmlns:xlink="http://www.w3.org/1999/xlink" id="Lager_1" viewBox="0 0 2087 690"><defs><style>.cls-1{fill:#cfcfcf}.cls-2{fill:url(#Namnlös_övertoning)}.cls-3{mask:url(#mask)}.cls-4{opacity:.33}.cls-5{fill:#0a1250}.cls-6{opacity:.82}.cls-7{fill:url(#Namnlös_övertoning_2)}.cls-8{fill:#fff;fill-rule:evenodd}</style><linearGradient id="Namnlös_övertoning" x1="2097.81" x2="295.31" y1="541.42" y2="205.42" gradientTransform="matrix(1 0 0 -1 0 689.89)" gradientUnits="userSpaceOnUse"><stop offset="0" stop-color="#d9d9d9"/><stop offset="1" stop-color="#fff"/></linearGradient><mask id="mask" width="8273" height="8273" x="-2489.5" y="-3885.5" maskUnits="userSpaceOnUse"><path id="mask0_499_415" d="M0 0h2087v690H0z" class="cls-1"/></mask><linearGradient id="Namnlös_övertoning_2" x1="-86.55" x2="938.85" y1="-841.33" y2="752.35" gradientTransform="matrix(1 0 0 -1 0 689.89)" gradientUnits="userSpaceOnUse"><stop offset="0.51" stop-color="#fff"/><stop offset="1" stop-color="#fff" stop-opacity="0.3"/></linearGradient></defs><path d="M0 0h2087v690H0z" class="cls-2"/><g class="cls-3"><g class="cls-4"><path d="M-2489.5-3208.62c0-373.83 303.05-676.88 676.88-676.88h6919.24c373.83 0 676.88 303.05 676.88 676.88v6919.24c0 373.83-303.05 676.88-676.88 676.88h-6919.24c-373.83 0-676.88-303.05-676.88-676.88Z" class="cls-5"/><g class="cls-6"><path d="M-114.61 450.66c-197.8 198.09-197.8 517.68 0 715.77s516.93 198.09 714.73 0l801.76-802.93C1006.28-32.68 368-32.68-27.57 363.5Z" class="cls-7"/><path d="m2184.39-1870.22-790.64 790.63-560.93-560.94a832.5 832.5 0 0 0-588.62-243.81 832.4 832.4 0 0 0-588.61 243.82L-474-1510.93 675.55-361.38-114.83 429c-121.95 122-168.93 290.48-140.94 448.31-19.49-150.24 28.55-307.47 144.13-423.22l87-87.16c395.64-396.18 1033.89-396.18 1429.5 0l550 551a832.43 832.43 0 0 0 1177.23 0l129.59-129.59L2112-361.38 2902.59-1152c198.35-198.35 198.37-519.92 0-718.25s-519.85-198.32-718.2.03" class="cls-8"/></g></g></g></svg>

<svg id="Lager_1" data-name="Lager 1" xmlns="http://www.w3.org/2000/svg" xmlns:xlink="http://www.w3.org/1999/xlink" viewBox="0 0 2087 690"><defs><style>.cls-1{fill:#cfcfcf;}.cls-2{fill:url(#Namnlös_övertoning);}.cls-3{mask:url(#mask);}.cls-4{opacity:0.33;}.cls-5{fill:#0a1250;}.cls-6{opacity:0.82;}.cls-7{fill:url(#Namnlös_övertoning_2);}.cls-8{fill:#fff;fill-rule:evenodd;}</style><linearGradient id="Namnlös_övertoning" x1="2097.81" y1="541.42" x2="295.31" y2="205.42" gradientTransform="matrix(1, 0, 0, -1, 0, 689.89)" gradientUnits="userSpaceOnUse"><stop offset="0" stop-color="#d9d9d9"/><stop offset="1" stop-color="#fff"/></linearGradient><mask id="mask" x="-2489.5" y="-3885.5" width="8273" height="8273" maskUnits="userSpaceOnUse"><g id="mask0_499_415" data-name="mask0 499 415"><rect class="cls-1" width="2087" height="690"/></g></mask><linearGradient id="Namnlös_övertoning_2" x1="-86.55" y1="-841.33" x2="938.85" y2="752.35" gradientTransform="matrix(1, 0, 0, -1, 0, 689.89)" gradientUnits="userSpaceOnUse"><stop offset="0.51" stop-color="#fff"/><stop offset="1" stop-color="#fff" stop-opacity="0.3"/></linearGradient></defs><rect class="cls-2" width="2087" height="690"/><g class="cls-3"><g class="cls-4"><path class="cls-5" d="M-2489.5-3208.62c0-373.83,303.05-676.88,676.88-676.88H5106.62c373.83,0,676.88,303.05,676.88,676.88V3710.62c0,373.83-303.05,676.88-676.88,676.88H-1812.62c-373.83,0-676.88-303.05-676.88-676.88Z"/><g class="cls-6"><path class="cls-7" d="M-114.61,450.66c-197.8,198.09-197.8,517.68,0,715.77s516.93,198.09,714.73,0L1401.88,363.5C1006.28-32.68,368-32.68-27.57,363.5Z"/><path class="cls-8" d="M2184.39-1870.22l-790.64,790.63L832.82-1640.53A832.47,832.47,0,0,0,244.2-1884.34a832.43,832.43,0,0,0-588.61,243.82L-474-1510.93,675.55-361.38-114.83,429C-236.78,551-283.76,719.48-255.77,877.31c-19.49-150.24,28.55-307.47,144.13-423.22l87-87.16C371-29.25,1009.25-29.25,1404.86,366.93h0l550,551a832.43,832.43,0,0,0,1177.23,0l129.59-129.59L2112-361.38,2902.59-1152c198.35-198.35,198.37-519.92,0-718.25S2382.74-2068.57,2184.39-1870.22Z"/></g></g></g></svg>
